src/assets/icons/badge.svg

<svg width="29" height="32" viewBox="0 0 29 32" fill="none" xmlns="http://www.w3.org/2000/svg">
<path fill-rule="evenodd" clip-rule="evenodd" d="M16.5288 0.562835L26.9417 6.5664C28.1821 7.28422 28.9003 8.52409 28.9003 9.99235V22.0321C28.9003 23.4678 28.1821 24.7402 26.9417 25.4581L16.5288 31.4616C15.2884 32.1795 13.8521 32.1795 12.579 31.4616L2.16607 25.4581C0.925654 24.7402 0.20752 23.5004 0.20752 22.0321V9.99235C0.20752 8.55672 0.925654 7.28422 2.16607 6.5664L12.579 0.562835C13.8521 -0.187612 15.2884 -0.187612 16.5288 0.562835ZM9.73913 11.95H11.5998V24.9686L14.5702 28.1662L17.5407 24.9686V11.95H19.4013C20.0215 11.95 20.5112 11.4606 20.5112 10.8407C20.5112 10.2207 20.0215 9.73133 19.4013 9.73133H15.6474V6.99057C16.0718 6.66429 16.3329 6.14224 16.3329 5.58756C16.3329 4.60872 15.5168 3.79302 14.5376 3.79302C13.5583 3.79302 12.7422 4.60872 12.7422 5.58756C12.7422 6.14224 13.0034 6.66429 13.4277 6.99057V9.73133H9.67384C9.05363 9.73133 8.564 10.2207 8.564 10.8407C8.59664 11.4606 9.11892 11.95 9.73913 11.95Z" fill="#E70017"/>
</svg>

<svg width="29" height="32" fill="none" xmlns="http://www.w3.org/2000/svg"><path fill-rule="evenodd" clip-rule="evenodd" d="m16.529.563 10.413 6.003c1.24.718 1.958 1.958 1.958 3.426v12.04c0 1.436-.718 2.708-1.958 3.426l-10.413 6.004c-1.24.717-2.677.717-3.95 0L2.166 25.458C.926 24.74.208 23.5.208 22.032V9.992c0-1.435.718-2.708 1.958-3.426L12.58.563c1.273-.75 2.71-.75 3.95 0M9.739 11.95h1.86v13.019l2.971 3.197 2.97-3.197V11.95h1.861a1.1 1.1 0 0 0 1.11-1.11 1.1 1.1 0 0 0-1.11-1.109h-3.754v-2.74c.425-.327.686-.849.686-1.403a1.81 1.81 0 0 0-1.795-1.795 1.81 1.81 0 0 0-1.796 1.795c0 .554.261 1.076.686 1.403v2.74H9.674a1.1 1.1 0 0 0-1.11 1.11 1.18 1.18 0 0 0 1.175 1.109" fill="#E70017"/></svg>
